X:4325
T:Polka
M:2/4
N:Bob Cann's Grandfather's polka 
O:England
R:Polka
Z:Richard Robinson 
%%TUNEURL: http://www.leeds.ac.uk/music/Info/RRTuneBk/gettune/00000c8e.html
%%ID:00000c8e
K:D
F2A2 B2c2 | dcde f2a2 | g2f2 e2d2 | cdcB A2G2 | \
F2A2 B2c2 | dcde f2a2 | g2f2 eABc | d2f2 d4 ::
e2AA e2AA | g2f2 e4   | g2f2 e2d2 | cdcB A2G2 | \
F2A2 B2c2 | dcde f2a2 | g2f2 eABc | d2f2 d4 :|
